Sources/FrostedUI/Resources/Icons.xcassets/verifiedCheck12.imageset/verified-check-12.svg

<svg
  width="12"
  height="12"
  viewBox="0 0 12 12"
  fill="none"
  xmlns="http://www.w3.org/2000/svg"
  data-fui-icon="true"
>
  <g clip-path="url(#clip0_882_1094)">
    <path
      d="M7.80123 1.65143L7.2012 2.10139C7.36552 2.32051 7.63622 2.43264 7.90735 2.39388L7.80123 1.65143ZM9.71231 2.28769L9.18198 2.81802L9.71231 2.28769ZM10.3486 4.19876L9.60611 4.09264C9.56736 4.36378 9.67949 4.63447 9.89861 4.79879L10.3486 4.19876ZM10.3486 7.80124L9.89861 7.20121C9.67948 7.36552 9.56736 7.63622 9.6061 7.90735L10.3486 7.80124ZM9.7123 9.71229L10.2426 10.2426V10.2426L9.7123 9.71229ZM7.80124 10.3486L7.90735 9.6061C7.63622 9.56735 7.36552 9.67948 7.2012 9.8986L7.80124 10.3486ZM4.19876 10.3486L4.79879 9.89861C4.63447 9.67949 4.36378 9.56736 4.09264 9.60612L4.19876 10.3486ZM2.28769 9.71231L2.81802 9.18198L2.81802 9.18198L2.28769 9.71231ZM1.65143 7.80124L2.39388 7.90735C2.43264 7.63622 2.32051 7.36552 2.10139 7.20121L1.65143 7.80124ZM1.65144 4.19876L2.10139 4.79879C2.32052 4.63447 2.43265 4.36378 2.39389 4.09264L1.65144 4.19876ZM4.19875 1.65143L4.09264 2.39389C4.36377 2.43264 4.63447 2.32051 4.79878 2.10139L4.19875 1.65143ZM8.40126 1.20147C7.8553 0.473414 6.98283 0 5.99999 0V1.5C6.49068 1.5 6.92631 1.73482 7.2012 2.10139L8.40126 1.20147ZM10.2426 1.75736C9.54767 1.06239 8.59598 0.780213 7.69511 0.908975L7.90735 2.39388C8.36093 2.32905 8.83501 2.47105 9.18198 2.81802L10.2426 1.75736ZM11.091 4.30488C11.2198 3.40401 10.9376 2.45233 10.2426 1.75736L9.18198 2.81802C9.52895 3.16499 9.67094 3.63906 9.60611 4.09264L11.091 4.30488ZM12 6C12 5.01716 11.5266 4.14469 10.7985 3.59873L9.89861 4.79879C10.2652 5.07368 10.5 5.50931 10.5 6H12ZM10.7985 8.40128C11.5266 7.85531 12 6.98284 12 6H10.5C10.5 6.49069 10.2652 6.92632 9.89861 7.20121L10.7985 8.40128ZM10.2426 10.2426C10.9376 9.54766 11.2198 8.59599 11.091 7.69513L9.6061 7.90735C9.67093 8.36093 9.52893 8.835 9.18197 9.18196L10.2426 10.2426ZM7.69512 11.091C8.59599 11.2198 9.54766 10.9376 10.2426 10.2426L9.18197 9.18196C8.835 9.52893 8.36093 9.67093 7.90735 9.6061L7.69512 11.091ZM5.99999 12C6.98284 12 7.85531 11.5266 8.40127 10.7985L7.2012 9.8986C6.92631 10.2652 6.49068 10.5 5.99999 10.5V12ZM3.59873 10.7985C4.14469 11.5266 5.01716 12 5.99999 12V10.5C5.50931 10.5 5.07368 10.2652 4.79879 9.89861L3.59873 10.7985ZM1.75736 10.2426C2.45233 10.9376 3.40401 11.2198 4.30487 11.091L4.09264 9.60612C3.63906 9.67095 3.16499 9.52895 2.81802 9.18198L1.75736 10.2426ZM0.908974 7.69512C0.780215 8.59599 1.06239 9.54767 1.75736 10.2426L2.81802 9.18198C2.47105 8.83501 2.32905 8.36094 2.39388 7.90735L0.908974 7.69512ZM0 6C0 6.98283 0.473414 7.8553 1.20147 8.40127L2.10139 7.20121C1.73482 6.92632 1.5 6.49068 1.5 6H0ZM1.20148 3.59872C0.47342 4.14468 0 5.01716 0 6H1.5C1.5 5.50931 1.73482 5.07368 2.10139 4.79879L1.20148 3.59872ZM1.75737 1.75737C1.06241 2.45233 0.780233 3.404 0.908984 4.30487L2.39389 4.09264C2.32907 3.63907 2.47107 3.16499 2.81803 2.81803L1.75737 1.75737ZM4.30486 0.908978C3.404 0.780231 2.45233 1.06241 1.75737 1.75737L2.81803 2.81803C3.16499 2.47107 3.63907 2.32907 4.09264 2.39389L4.30486 0.908978ZM5.99999 0C5.01715 0 4.14468 0.473417 3.59872 1.20148L4.79878 2.10139C5.07367 1.73482 5.50931 1.5 5.99999 1.5V0Z"
      fill="currentColor"
    />
    <path
      d="M3.75 6L5.25 7.59375L8.25 4.5"
      stroke="currentColor"
      stroke-width="1.5"
      stroke-linecap="round"
      stroke-linejoin="round"
    />
  </g>
  <defs>
    <clipPath id="clip0_882_1094">
      <path fill="currentColor" d="M0 0H12V12H0z" />
    </clipPath>
  </defs>
</svg>

<svg xmlns="http://www.w3.org/2000/svg" width="12" height="12" fill="none" data-fui-icon="true" viewBox="0 0 12 12"><g clip-path="url(#a)"><path fill="currentColor" d="m7.801 1.651-.6.45a.75.75 0 0 0 .706.293zm1.911.637-.53.53zm.637 1.91-.743-.105a.75.75 0 0 0 .293.706zm0 3.603-.45-.6a.75.75 0 0 0-.293.706zm-.637 1.911.53.53zm-1.91.637.105-.743a.75.75 0 0 0-.706.293zm-3.603 0 .6-.45a.75.75 0 0 0-.706-.293zm-1.911-.637.53-.53zm-.637-1.91.743.105a.75.75 0 0 0-.293-.706zm0-3.603.45.6a.75.75 0 0 0 .293-.706zM4.2 1.65l-.106.743a.75.75 0 0 0 .706-.293zm4.202-.45A3 3 0 0 0 6 0v1.5c.49 0 .926.235 1.201.601zm1.842.556A3 3 0 0 0 7.695.91l.212 1.485c.454-.065.928.077 1.275.424zm.848 2.548a3 3 0 0 0-.848-2.548L9.182 2.818c.347.347.489.821.424 1.275zM12 6c0-.983-.473-1.855-1.201-2.401l-.9 1.2c.366.275.601.71.601 1.201zm-1.201 2.401A3 3 0 0 0 12 6h-1.5c0 .49-.235.926-.601 1.201zm-.556 1.842a3 3 0 0 0 .848-2.548l-1.485.212c.065.454-.077.928-.424 1.275zm-2.548.848c.901.129 1.853-.153 2.548-.848L9.182 9.182a1.5 1.5 0 0 1-1.275.424zM6 12c.983 0 1.855-.473 2.401-1.201l-1.2-.9c-.275.366-.71.601-1.201.601zm-2.401-1.201A3 3 0 0 0 6 12v-1.5c-.49 0-.926-.235-1.201-.601zm-1.842-.556a3 3 0 0 0 2.548.848l-.212-1.485a1.5 1.5 0 0 1-1.275-.424zM.91 7.695c-.129.901.153 1.853.848 2.548l1.061-1.061a1.5 1.5 0 0 1-.424-1.275zM0 6c0 .983.473 1.855 1.201 2.401l.9-1.2A1.5 1.5 0 0 1 1.5 6zm1.201-2.401A3 3 0 0 0 0 6h1.5c0-.49.235-.926.601-1.201zm.556-1.842A3 3 0 0 0 .91 4.305l1.485-.212a1.5 1.5 0 0 1 .424-1.275zM4.305.91a3 3 0 0 0-2.548.848l1.061 1.061a1.5 1.5 0 0 1 1.275-.424zM6 0c-.983 0-1.855.473-2.401 1.201l1.2.9C5.074 1.735 5.509 1.5 6 1.5z"/><path stroke="currentColor" stroke-linecap="round" stroke-linejoin="round" stroke-width="1.5" d="m3.75 6 1.5 1.594 3-3.094"/></g><defs><clipPath id="a"><path fill="currentColor" d="M0 0h12v12H0z"/></clipPath></defs></svg>
